!!!COM:	Josquin des Prez
!!!CDT:	~1450-1521/08/27
!!!OPR:	Missa Hercules dux Ferrarie
!!!OTA:	Missa Philippus rex Castilie
!!!ONM:	1
!!!OTL:	Sanctus
!!!AGN:	Mass; Sanctus
!!!SCT:	NJE 11.1
!!!SCA:	New Josquin Edition 11.1
!!!voices: 4
!!!voices-OPR: 4(-6)
**kern	**kern	**kern	**kern
*staff4	*staff3	*staff2	*staff1
*Ivox	*Ivox	*Ivox	*Ivox
*I"Bassus	*I"Tenor	*I"Altus	*I"Superius
*I'B	*I'T	*I'A	*I'S
*>[A,B,C,D,E,F,C]	*>[A,B,C,D,E,F,C]	*>[A,B,C,D,E,F,C]	*>[A,B,C,D,E,F,C]
*>Sanctus[A]	*>Sanctus[A]	*>Sanctus[A]	*>Sanctus[A]
*>Pleni[B]	*>Pleni[B]	*>Pleni[B]	*>Pleni[B]
*>Osanna[C]	*>Osanna[C]	*>Osanna[C]	*>Osanna[C]
*>Benedictus[D]	*>Benedictus[D]	*>Benedictus[D]	*>Benedictus[D]
*>Qui_venit[E]	*>Qui_venit[E]	*>Qui_venit[E]	*>Qui_venit[E]
*>In_nomine[F]	*>In_nomine[F]	*>In_nomine[F]	*>In_nomine[F]
*>A	*>A	*>A	*>A
*clefF4	*clefGv2	*clefGv2	*clefG2
*k[]	*k[]	*k[]	*k[]
*M3/1	*M3/1	*M3/1	*M3/1
*met(O)	*met(O)	*met(O)	*met(O)
!!!OMD: Sanctus
!!section: Sanctus
=1-	=1-	=1-	=1-
0.r	0.r	0.d	2r
.	.	.	2.d/
.	.	.	4e/
.	.	.	4f/
.	.	.	4g/
.	.	.	2a/
.	.	.	2d/
=2	=2	=2	=2
2r	0.r	0.c	0.e
2.AA/	.	.	.
4BB/	.	.	.
4C/	.	.	.
4D\	.	.	.
2E\	.	.	.
2AA/	.	.	.
=3	=3	=3	=3
0BB-	0.r	0.d	2r
.	.	.	2.d/
.	.	.	4e/
.	.	.	4f/
.	.	.	4g/
1r	.	.	2a/
.	.	.	2d/
=4	=4	=4	=4
2r	0.r	0.c	0.e
2.AA/	.	.	.
4BB/	.	.	.
4C/	.	.	.
4D\	.	.	.
2E\	.	.	.
2AA/	.	.	.
=5	=5	=5	=5
2BB-i/	0.r	0.d	2d/
2.GG/	.	.	2.dd\
4AA/	.	.	4cc\
4BB-i/	.	.	2b-i\
4C/	.	.	.
2D\	.	.	4a/
.	.	.	4f/
2GG/	.	.	2b-\
=6	=6	=6	=6
0.D	0.r	0.f	2a/
.	.	.	2.d/
.	.	.	4e/
.	.	.	4f/
.	.	.	4g/
.	.	.	2a/
.	.	.	2d/
=7	=7	=7	=7
2r	0.r	0.e	2e/
2.AA/	.	.	2.c/
4BB/	.	.	4d/
4C/	.	.	4e/
4D\	.	.	4f/
2E\	.	.	2g/
2AA/	.	.	2c/
=8	=8	=8	=8
2BB-i/	0.r	0.d	2d/
2.GG/	.	.	2.dd\
4AA/	.	.	4cc\
4BB-i/	.	.	2b-i\
4C/	.	.	.
2D\	.	.	4a/
.	.	.	4f/
2GG/	.	.	2b-\
=9	=9	=9	=9
2r	0.D	2r	2a/
2.D\	.	[2d\	1f
.	.	0d]	.
4E\	.	.	.
4F\	.	.	2d/
4G\	.	.	.
2A\	.	.	1f
2D\	.	.	.
=10	=10	=10	=10
2E\	0.C	2G/	0e
2.AA/	.	2.c\	.
4BB/	.	4B\	.
4C/	.	2A/	.
4D\	.	.	.
2E\	.	2G/	2r
2AA/	.	2A/	2e/
=11	=11	=11	=11
2r	0.D	2F/	1.f
2.D\	.	2D/	.
.	.	0d	.
4E\	.	.	.
4F\	.	.	2d/
4G\	.	.	.
2A\	.	.	1f
2D\	.	.	.
=12	=12	=12	=12
2E\	0.C	2G/	0e
2.AA/	.	2.c\	.
4BB/	.	4B\	.
4C/	.	2A/	.
4D\	.	.	.
2E\	.	2G/	2r
2AA/	.	2A/	2e/
=13	=13	=13	=13
2BB-/	0.D	2F/	2d/
2.GG/	.	2.B-\	2.dd\
4AA/	.	4A/	4cc\
4BB-i/	.	2G/	2b-\
4C/	.	.	.
2D\	.	2F/	4a/
.	.	.	4f/
2GG/	.	2G/	2b-i\
=14	=14	=14	=14
2r	0.F	2D/	1a
2.D\	.	2.f\	.
.	.	.	2d/
4E\	.	4e\	.
4F\	.	2d\	1a
4G\	.	.	.
2A\	.	2c\	.
2D\	.	2d\	2f/
=15	=15	=15	=15
2E\	0.E	2G/	2g/
2.AA/	.	2A/	2.c/
.	.	2.c\	.
4BB/	.	.	4d/
4C/	.	.	4e/
4D\	.	4B\	4f/
2E\	.	2G/	2g/
2AA/	.	2A/	2c/
=16	=16	=16	=16
2BB-/	[0.Dl	2F/	2d/
2.GG/	.	2.B-\	2.dd\
4AA/	.	4A/	4cc\
4BB-i/	.	2G/	2b-\
4C/	.	.	.
2D\	.	4F/	4a/
.	.	4D/	4f/
2GG/	.	2G/	2b-i\
=17	=17	=17	=17
0.Dl	0.D]	0.Fl	0.al
!!LO:LB:i:g=z
=18||	=18||	=18||	=18||
*>B	*>B	*>B	*>B
*clefF4	*clefGv2	*clefGv2	*clefG2
*k[]	*k[]	*k[]	*k[]
*M2/1	*M2/1	*M2/1	*M2/1
*met(C|)	*met(C|)	*met(C|)	*met(C|)
!!!OMD: Pleni sunt celi
!!section: Pleni sunt celi
!LO:TX:Z=15:t=Canon&colon; Supra bassum [Canon at the upper fifth]	!	!	!
1D	0r	1r	0r
1F	.	1A	.
=19	=19	=19	=19
1E	0r	1c	0r
[1G	.	1B	.
=20	=20	=20	=20
2G\]	0r	1.d	0r
4F\	.	.	.
4E\	.	.	.
2D\	.	.	.
2E\	.	4c\	.
.	.	4B\	.
=21	=21	=21	=21
2F\	0r	2A/	0r
2G\	.	2B\	.
2A\	.	2c\	.
2D\	.	2d\	.
=22	=22	=22	=22
1A	0r	2e\	0r
.	.	2A/	.
2r	.	1e	.
2AA/	.	.	.
=23	=23	=23	=23
1C	0r	2r	0r
.	.	2E/	.
1BB	.	1G	.
=24	=24	=24	=24
1.D	0r	1F	0r
.	.	[1A	.
4C/	.	.	.
4BB/	.	.	.
=25	=25	=25	=25
2AA/	0r	2A/]	0r
2BB/	.	4G/	.
.	.	4F/	.
2C/	.	2E/	.
2D\	.	2F/	.
=26	=26	=26	=26
2E\	0r	2G/	0r
2AA/	.	2A/	.
1E	.	2B\	.
.	.	2E/	.
=27	=27	=27	=27
2r	0r	1B	0r
2E\	.	.	.
1G	.	2r	.
.	.	2B\	.
=28	=28	=28	=28
1F	0r	1d	0r
[1A	.	1c	.
=29	=29	=29	=29
2A\]	0r	1.e	0r
4G\	.	.	.
4F\	.	.	.
2E\	.	.	.
2F\	.	4d\	.
.	.	4c\	.
=30	=30	=30	=30
2G\	0r	2B\	0r
2A\	.	2c\	.
2D\	.	2d\	.
2A\	.	2e\	.
=31	=31	=31	=31
2r	0r	2A/	0r
1A	.	2e\	.
.	.	2r	.
2G\	.	[2e\	.
=32	=32	=32	=32
2A\	0r	2e\]	0r
2F\	.	2d\	.
2E\	.	2e\	.
2A\	.	2c\	.
=33	=33	=33	=33
2G\	0r	2B\	0r
2E\	.	2e\	.
2r	.	2d\	.
[2G\	.	2B\	.
=34	=34	=34	=34
2G\]	0r	2r	0r
2F\	.	1d	.
2G\	.	.	.
2E\	.	2c\	.
=35	=35	=35	=35
2D\	0r	2d\	0r
2G\	.	2B\	.
2F\	.	2A/	.
2D\	.	2d\	.
=36	=36	=36	=36
2r	0r	2c\	0r
2D\	.	2A/	.
2E\	.	2r	.
2F\	.	2A/	.
=37	=37	=37	=37
2G\	0r	2B\	0r
2E\	.	2c\	.
2F\	.	2d\	.
2G\	.	2B\	.
=38	=38	=38	=38
2A\	0r	2c\	0r
2D\	.	2d\	.
2r	.	2e\	.
[2A\	.	2A/	.
=39	=39	=39	=39
2A\]	0r	2r	0r
2G\	.	1e	.
2A\	.	.	.
2B-i\	.	2d\	.
=40	=40	=40	=40
2G\	0r	2e\	0r
2A\	.	2f\	.
2r	.	2d\	.
[2A\	.	2e\	.
=41	=41	=41	=41
2A\]	0r	2r	0r
2G\	.	1e	.
2A\	.	.	.
2B-i\	.	2d\	.
=42	=42	=42	=42
2G\	0r	2e\	0r
2A\	.	2f\	.
2r	.	2d\	.
[2AA/	.	2e\	.
=43	=43	=43	=43
4AA/]	0r	2r	0r
4GG/	.	.	.
4AA/	.	2.E/	.
4BB/	.	.	.
4C/	.	.	.
4BB/	.	4D/	.
4C/	.	4E/	.
4AA/	.	4F/	.
=44	=44	=44	=44
4BB/	0r	4G/	0r
4AA/	.	4F/	.
4BB/	.	4G/	.
4C/	.	4E/	.
2D\	.	4F/	.
.	.	4E/	.
2BB/	.	4F/	.
.	.	4G/	.
=45	=45	=45	=45
2AA/	0r	2A/	0r
2A\	.	2F/	.
2G\	.	2E/	.
2A\	.	2e\	.
=46	=46	=46	=46
2D\	0r	2d\	0r
2A\	.	2e\	.
2r	.	2A/	.
[2AA/	.	2e\	.
=47	=47	=47	=47
4AA/]	0r	2r	0r
4GG/	.	.	.
4AA/	.	2.E/	.
4BB/	.	.	.
4C/	.	.	.
4BB/	.	4D/	.
4C/	.	4E/	.
4AA/	.	4F/	.
=48	=48	=48	=48
4BB/	0r	4G/	0r
4AA/	.	4F/	.
4BB/	.	4G/	.
4C/	.	4E/	.
2D\	.	4F/	.
.	.	4E/	.
2BB/	.	4F/	.
.	.	4G/	.
=49	=49	=49	=49
2AA/	0r	2A/	0r
2.D\	.	2F/	.
.	.	2E/	.
4C/	.	.	.
4D\	.	[2A/	.
4E\	.	.	.
=50	=50	=50	=50
4F\	0r	4A/]	0r
4E\	.	4G/	.
4F\	.	4A/	.
4D\	.	4B\	.
4E\	.	4c\	.
4D\	.	4B\	.
4E\	.	4c\	.
4F\	.	4A/	.
=51	=51	=51	=51
2G\	0r	4B\	0r
.	.	4A/	.
2E\	.	4B\	.
.	.	4c\	.
1D	.	2d\	.
.	.	2B\	.
=52	=52	=52	=52
2r	0r	1A	0r
2.D\	.	.	.
.	.	2r	.
4C/	.	.	.
4D\	.	[2A/	.
4E\	.	.	.
=53	=53	=53	=53
4F\	0r	4A/]	0r
4E\	.	4G/	.
4F\	.	4A/	.
4D\	.	4B\	.
4E\	.	4c\	.
4D\	.	4B\	.
4E\	.	4c\	.
4F\	.	4A/	.
=54	=54	=54	=54
4G\	0r	4B\	0r
4F\	.	4A/	.
4G\	.	4B\	.
4E\	.	4c\	.
4F\	.	4d\	.
4E\	.	4c\	.
4F\	.	4d\	.
4G\	.	4B\	.
=55	=55	=55	=55
2A\	0r	4c\	0r
.	.	4B\	.
2F\	.	4c\	.
.	.	4d\	.
1E	.	2e\	.
.	.	2c\	.
=56	=56	=56	=56
0Dl	0r	1B	0r
.	.	1Al	.
!!LO:LB:i:g-=z
=57||	=57||	=57||	=57||
*>C	*>C	*>C	*>C
*clefF4	*clefGv2	*clefGv2	*clefG2
*k[]	*k[]	*k[]	*k[]
*M2/1	*M2/1	*M2/1	*M2/1
*met(C|)	*met(C|)	*met(C|)	*met(C|)
!!!OMD: Osanna
!!section: Osanna
0r	0r	4D/	0r
.	.	4E/	.
.	.	4F/	.
.	.	4G/	.
.	.	2A/	.
.	.	[2B-\	.
=58	=58	=58	=58
0r	0r	4B-\]	4d/
.	.	4A/	4e/
.	.	2.A/	4f/
.	.	.	4g/
.	.	.	2a/
.	.	4D/	.
.	.	2d\	[2b-i\
=59	=59	=59	=59
0r	0r	2c\	4b-\]
.	.	.	4a/
.	.	2A/	2.a/
.	.	1B-i	.
.	.	.	4d/
.	.	.	2dd\
=60	=60	=60	=60
0r	0r	1A	2cc\
.	.	.	2a/
.	.	2r	1b-i
.	.	2G/	.
=61	=61	=61	=61
1r	1D	2A/	1a
.	.	2D/	.
1AA	1C	2E/	2r
.	.	2F/	[2cc\
=62	=62	=62	=62
1GG	1D	1G	2cc\]
.	.	.	2b\
1AA	1C	2r	2.cc\
.	.	2E/	.
.	.	.	4a/
=63	=63	=63	=63
2r	1D	2F/	4a/
.	.	.	4f/
2GG/	.	2G/	2b-i\
1D	1F	2A/	2a/
.	.	[2B-i\	2d/
=64	=64	=64	=64
2C/	1E	4B-\]	2e/
.	.	4A/	.
2AA/	.	2.A/	2c/
1BB-i	1D	.	2d/
.	.	4D/	.
.	.	2d\	[2f/
=65	=65	=65	=65
1AA	0r	2.c\	4f/]
.	.	.	4e/
.	.	.	2a/
.	.	4A/	.
1r	.	4c\	2g/
.	.	4B\	.
.	.	[2e\	2cc\
=66	=66	=66	=66
0r	0r	4e\]	2b\
.	.	4d\	.
.	.	2f\	2a/
.	.	2e\	2cc\
.	.	[2g\	[2b\
=67	=67	=67	=67
0r	0r	4g\]	4b\]
.	.	4f\	4a/
.	.	4d\	2dd\
.	.	4f\	.
.	.	2e\	2cc\
.	.	[2d\	[2b\
=68	=68	=68	=68
0r	0r	4d\]	4b\]
.	.	4c\	4a/
.	.	4A/	1a
.	.	4c\	.
.	.	1B	.
.	.	.	2g#i/
=69	=69	=69	=69
1r	1A	2r	2a/
.	.	2A/	2cc\
1E	1G	2B\	2b\
.	.	2c\	[2g/
=70	=70	=70	=70
1D	1A	1d	2g/]
.	.	.	2f/
1E	1G	2r	2.g/
.	.	2B\	.
.	.	.	4e/
=71	=71	=71	=71
2r	1A	2c\	4e/
.	.	.	4c/
2D\	.	2d\	2f/
1A	1c	2e\	2e/
.	.	[2f\	2c/
=72	=72	=72	=72
2G\	1B	4f\]	2d/
.	.	4e\	.
2E\	.	2.e\	2e/
1F	1A	.	2r
.	.	4c\	.
.	.	2d\	2a/
=73	=73	=73	=73
1E	0r	2r	2.g/
.	.	2e\	.
.	.	.	4e/
1r	.	2.d\	4f/
.	.	.	4d/
.	.	.	4f/
.	.	4B\	4g/
=74	=74	=74	=74
0r	0r	4c\	2e/
.	.	4A/	.
.	.	4c\	2a/
.	.	4d\	.
.	.	2B\	2.g/
.	.	2e\	.
.	.	.	4e/
=75	=75	=75	=75
0r	0r	2.d\	4f/
.	.	.	4d/
.	.	.	4f/
.	.	4B\	4g/
.	.	4c\	2e/
.	.	4d\	.
.	.	[2e\	[2g/
=76	=76	=76	=76
0r	0r	4e\]	4g/]
.	.	4d\	4f/
.	.	2d\	2d/
.	.	1g	1e
=77	=77	=77	=77
1r	1d	2f\	2d/
.	.	2d\	2f/
1A	1c	2e\	4e/
.	.	.	4c/
.	.	2f\	[2cc\
=78	=78	=78	=78
1G	1d	1g	2cc\]
.	.	.	2b\
1A	1c	2r	2.cc\
.	.	2e\	.
.	.	.	4a/
=79	=79	=79	=79
2r	1d	2f\	4a/
.	.	.	4f/
2G\	.	2g\	2b-i\
1d	1f	2r	4a/
.	.	.	4f/
.	.	2d\	[2b-i\
=80	=80	=80	=80
2c\	1e	2e\	4b-\]
.	.	.	4a/
2A\	.	2c\	1a
1B-i	1d	2r	.
.	.	2d\	2g/
=81	=81	=81	=81
0A	2D/	2f\	0a
.	2C/	2e\	.
.	2D/	4f\	.
.	.	4d\	.
.	2C/	2e\	.
=82	=82	=82	=82
2r	2D/	2.A/	2.f/
2D\	2F/	.	.
.	.	4B\	4d/
2C/	2E/	2c\	2e/
2D\	2D/	2F/	2f/
=83	=83	=83	=83
2AA/	2A/	4c\	2e/
.	.	4A/	.
2E\	2G/	4B\	2g/
.	.	4c\	.
2D\	2A/	2d\	2f/
2E\	2G/	2B\	2g/
=84	=84	=84	=84
2AA/	2A/	4c\	1e
.	.	4d\	.
2A\	2c\	4e\	.
.	.	4c\	.
2G\	2B\	4d\	2r
.	.	4e\	.
2A\	2A/	[2f\	[2a/
=85	=85	=85	=85
2D\	2d\	4f\]	4a/]
.	.	4d\	4b\
2A\	2c\	4e\	4cc\
.	.	4f\	4a/
2G\	2d\	2g\	2b\
2A\	2c\	2e\	2cc\
=86	=86	=86	=86
2F\	2d\	2.f\	1a
2D\	2f\	.	.
.	.	4e\	.
2r	2e\	2c\	2g/
[2G\	[2d\l	2d\	[2b-\
=87	=87	=87	=87
2G\]	0d_	2B-\	2b-\]
2G\	.	2G/	2b-i\
1G	.	1g	1b-i
=88	=88	=88	=88
0Dl	0d]	0fl	0al
!!LO:LB:i:g=z
!!LO:TX:rj:i:t=fine
=89||	=89||	=89||	=89||
*>D	*>D	*>D	*>D
*clefF4	*clefGv2	*clefGv2	*clefG2
*k[]	*k[]	*k[]	*k[]
*M2/1	*M2/1	*M2/1	*M2/1
*met(C|)	*met(C|)	*met(C|)	*met(C|)
!!!OMD: Benedictus
!!section: Benedictus
0r	0D	2.d\	0r
.	.	4e\	.
.	.	2f\	.
.	.	2d\	.
=90	=90	=90	=90
0r	0C	2f\	0r
.	.	1e	.
.	.	4d\	.
.	.	4c\	.
=91	=91	=91	=91
0r	0D	2B\	0r
.	.	2A/	.
.	.	2B\	.
.	.	[2A/	.
=92	=92	=92	=92
0r	0C	2A/]	0r
.	.	4G/	.
.	.	4F/	.
.	.	2E/	.
.	.	[2A/	.
=93	=93	=93	=93
0r	0D	4A/]	0r
.	.	4F/	.
.	.	2B-\	.
.	.	2A/	.
.	.	2d\	.
=94	=94	=94	=94
0r	0F	4D/	0r
.	.	4E/	.
.	.	4F/	.
.	.	4G/	.
.	.	4A/	.
.	.	4B\	.
.	.	4c\	.
.	.	4d\	.
=95	=95	=95	=95
0r	0E	4e\	0r
.	.	4c\	.
.	.	2.d\	.
.	.	4c#i\	.
.	.	4c#i\	.
.	.	4B\	.
=96	=96	=96	=96
0r	0Dl	0dl	0r
!!LO:LB:i:g=z
=97||	=97||	=97||	=97||
*>E	*>E	*>E	*>E
*clefF4	*clefGv2	*clefGv2	*clefG2
*k[]	*k[]	*k[]	*k[]
*M2/1	*M2/1	*M2/1	*M2/1
*met(C|)	*met(C|)	*met(C|)	*met(C|)
!!!OMD: Qui venit
!!section: Qui venit
1F	0A	0r	0r
2D\	.	.	.
[2F\	.	.	.
=98	=98	=98	=98
2F\]	0G	0r	0r
4E\	.	.	.
4D\	.	.	.
1E	.	.	.
=99	=99	=99	=99
2AA/	0A	0r	0r
2c\	.	.	.
2A\	.	.	.
[2c\	.	.	.
=100	=100	=100	=100
2c\]	0G	0r	0r
4B\	.	.	.
4A\	.	.	.
2B\	.	.	.
2E\	.	.	.
=101	=101	=101	=101
2r	0A	0r	0r
2F\	.	.	.
4D\	.	.	.
4E\	.	.	.
4F\	.	.	.
4D\	.	.	.
=102	=102	=102	=102
2E\	0c	0r	0r
4AA/	.	.	.
4BB/	.	.	.
4C/	.	.	.
4D\	.	.	.
4E\	.	.	.
4F\	.	.	.
=103	=103	=103	=103
4G\	0B	0r	0r
4E\	.	.	.
2.A\	.	.	.
4G#i\	.	.	.
4G#i\	.	.	.
4F#i\	.	.	.
=104	=104	=104	=104
0Al	0Al	0r	0r
!!LO:LB:i:g=z
=105||	=105||	=105||	=105||
*>F	*>F	*>F	*>F
*clefF4	*clefGv2	*clefGv2	*clefG2
*k[]	*k[]	*k[]	*k[]
*M2/1	*M2/1	*M2/1	*M2/1
*met(C|)	*met(C|)	*met(C|)	*met(C|)
!!!OMD: In nomine
!!section: In nomine
0r	0d	0r	1a
.	.	.	2b-i\
.	.	.	[2a/
=106	=106	=106	=106
0r	0c	0r	2a/]
.	.	.	4g/
.	.	.	4f/
.	.	.	2e/
.	.	.	2A/
=107	=107	=107	=107
0r	0d	0r	2r
.	.	.	2a/
.	.	.	2b-i\
.	.	.	[2a/
=108	=108	=108	=108
0r	0c	0r	2a/]
.	.	.	4g/
.	.	.	4f/
.	.	.	2e/
.	.	.	2A/
=109	=109	=109	=109
0r	0d	0r	2r
.	.	.	2a/
.	.	.	2b-i\
.	.	.	[2a/
=110	=110	=110	=110
0r	0f	0r	4a/]
.	.	.	4g/
.	.	.	4f/
.	.	.	4e/
.	.	.	2d/
.	.	.	[2dd\
=111	=111	=111	=111
0r	0e	0r	2dd\]
.	.	.	4cc#i\
.	.	.	4b\
.	.	.	4cc#i\
.	.	.	4dd\
.	.	.	4ee\
.	.	.	4cc#i\
=112	=112	=112	=112
0r	0dl	0r	0ddl
!!LO:TX:i:Y=40:rj:t=Osanna ut supra
=||	=||	=||	=||
*-	*-	*-	*-
!!!RDF**kern: l=long note in original notation
!!!RDF**kern: i=editorial accidental
!!!ENC: Jesse Rodin; Victoria Chang 2011/09/11
!!!END: 2011/04/07/
!!!EED: Jesse Rodin
!!!EEV: 2013/10/25/
!!attribution-level: 1 (secure)
!!!ONB: Translated from MusicXML and edited on 2011/04/15/ by Craig Sapp
!!muse2ps: T^@{OPR}^u^@{ONM}{. }@{OTL}^C^@{COM}\n@{SCT}^i2I100v85,90,85,100Q16
